X: 13
T:Old Woman Tossed Up, Bledington 3
M:6/8
L:1/8
S:RKS (Hathaway)
A:Bledington
P:A(AB)4
K:G
P:A
|:D|GAB cBc|ege dBG|cBc Adc|BGG G2:|
P:B
|:d|efg efg|eag fed|ded def|gfe d2B|
GAB cBc|ege dBG|cBc Adc|BGG G2:|
